X: 26067
T: McCusker Brothers', The
R: barndance
M: 4/4
K: Dmajor
|:(3fg^g|a2- a>g f2 (3gfe|d>A^G>A B2 A2|g>a (3agf e>f (3fed|c>A^G>A B2 A2|
a2 a>g f>gf>e|d>A^G>A B2 A2|c>A (3cde b>a (3gfe|1 d2 f2 d2:|2 d2 f2 d2-||
|:d>e|f>^ef>a d2 c>d|e>^de>g B4|c>^Bc>=B A>ce>c|d>cd<f b2 a>g|
f>^e (3fga d4|e>^d (3efg B4|c>^Bc>=B A2 (3gfe|1 d2 f2 d2-:|2 d2 A2 D2||

